dist/icons/svgs/hourglass-half-outline.svg

<svg xmlns="http://www.w3.org/2000/svg" width="24" height="24" fill="currentcolor" class="icon-hourglass-half-outline" viewBox="0 0 24 24">
  <path d="M5 2.9375C5 2.42969 5.39062 2 5.9375 2H19.0625C19.5703 2 20 2.42969 20 2.9375C20 3.48438 19.5703 3.875 19.0625 3.875H18.75V4.61719C18.75 6.21875 18.125 7.70312 16.9922 8.83594L13.7891 12L16.9922 15.2031C18.125 16.2969 18.75 17.8203 18.75 19.3828V20.125H19.0625C19.5703 20.125 20 20.5547 20 21.0625C20 21.6094 19.5703 22 19.0625 22H5.9375C5.39062 22 5 21.6094 5 21.0625C5 20.5547 5.39062 20.125 5.9375 20.125H6.25V19.3828C6.25 17.8203 6.875 16.2969 7.96875 15.2031L11.1719 12L7.96875 8.83594C6.875 7.70312 6.25 6.21875 6.25 4.61719V3.875H5.9375C5.39062 3.875 5 3.48438 5 2.9375ZM9.29688 16.5312C9.14062 16.6875 9.02344 16.8438 8.86719 17H16.0938C15.9766 16.8438 15.8203 16.6875 15.6641 16.5312L12.5 13.3281L9.29688 16.5312ZM16.0938 7C16.6016 6.33594 16.875 5.47656 16.875 4.61719V3.875H8.125V4.61719C8.125 5.51562 8.39844 6.33594 8.86719 7H16.0938Z"/>
</svg>

<svg xmlns="http://www.w3.org/2000/svg" width="24" height="24" fill="currentColor" class="icon-hourglass-half-outline" viewBox="0 0 24 24">
  <path d="M5 2.938C5 2.43 5.39 2 5.938 2h13.125a.95.95 0 0 1 .937.938c0 .546-.43.937-.937.937h-.313v.742a5.9 5.9 0 0 1-1.758 4.219L13.79 12l3.203 3.203a5.82 5.82 0 0 1 1.758 4.18v.742h.313a.95.95 0 0 1 .937.938c0 .546-.43.937-.937.937H5.938C5.39 22 5 21.61 5 21.063c0-.508.39-.938.938-.938h.312v-.742c0-1.563.625-3.086 1.719-4.18L11.172 12 7.969 8.836A6.04 6.04 0 0 1 6.25 4.617v-.742h-.312c-.547 0-.938-.39-.938-.937M9.297 16.53c-.156.157-.274.313-.43.469h7.227c-.117-.156-.274-.312-.43-.469L12.5 13.328zM16.094 7c.508-.664.781-1.523.781-2.383v-.742h-8.75v.742c0 .899.273 1.719.742 2.383z"/>
</svg>
